**kern	**kern	**kern
*staff3	*staff2	*staff1
*tb8	*tb8	*tb8
=1-	=1-	=1-
*clefF4	*clefG2	*clefG2
*k[f#c#]	*k[f#c#]	*k[f#c#]
*M6/8	*M6/8	*M6/8
2.D\	8f#/L 8a/L	4a/
.	8d/	.
.	8f#/J 8a/J	8a/
.	8e#/L 8g#/L	4g#/
.	8d/	.
.	8f#/J 8a/J	8a/
=2	=2	=2
*^	*	*
4B/	2.D\	8a/L 8dd/L	4dd\
.	.	8d/	.
8A/	.	8g/J 8cc#/J	8cc#'\
4G/	.	8g/L 8b/L	8cc#\L
.	.	8d/ 8b/	8b\J
8F#/	.	8a/J	8a/
=3	=3	=3	=3
4B/	2.D\	8g/L	4g/
.	.	8d/	.
8A/	.	8f#/J	8f#/
4G/	.	8c#/L 8e/L	4e/
.	.	8A/	.
8F#/	.	8d/J	8d/
*v	*v	*	*
=4	=4	=4
!!linebreak:original
*^	*	*
4G/	4.D\	8b/L	4b\
.	.	8d/	.
8F#/	.	8a/J	8a/
4E/	4.AA\	8c#/L 8a/L	8a/L
.	.	8A/ 8g/	8g/J
8D/	.	8d/J 8f#/J	8f#/
*v	*v	*	*
=5	=5	=5
4G\	8c#/L 8e/L	4e/
.	8A/	.
8F#\	8d/J	8d/
4E\	8c#/L 8g/L	4g/
.	8A/	.
8D\	8cn/J 8d/J	8f#/
=6	=6	=6
4GG/	8r	4b\
.	8d/L 8g/L	.
8r	8e/J	8cc#\
4.EE/	8r	4b\
.	8c#/L 8e/L 8g/L	.
.	8f#/J	8a#/
=7	=7	=7
!!linebreak:original
4.BB/	8r	4an/
.	8d#/L 8f#/L	.
.	8B/J	8a/
4E\	8r	4a/
.	8dn/L 8e/L	.
8r	8B/J	8g#/
=8	=8	=8
4.AA/	8r	4gn/
.	8c#/L 8e/L	.
.	8A/J	8g/
4.D\	8r	4g/
.	8d/L 8f#/L	.
.	8A/J	8f#/
=9	=9	=9
4cn\	8f#/L 8a/L	4a/
.	8d/	.
8B\	8g/J	8g/
4A\	8f#/L 8ccn/L	4ccn\
.	8d/	.
8G\	8g/J 8b/J	8b\
=10	=10	=10
!!linebreak:original
8B\L	8dd\L	[2.dd\
8B-\	8cc#\	.
8A\	8ccn\	.
8D\ 8G#\	8b\	.
8A\	8cc\	.
8F#\J	8a#\J	.
=11	=11	=11
4GG/ 4G/	4b\	8dd\]
.	.	8cc#\L
8r	8r	8b\J
4.AA\ 4.G\	4.A/ 4.d/	8a/L
.	.	8g/
.	.	8e/J
=12	=12	=12
4.DD/ 4.D/	8d/L	4d/
.	8F#/	.
.	8A/	8r
4r	8d/	4r
.	8f#/	.
8A\	8a/J	8r
=13	=13	=13
!!linebreak:original
*^	*	*
4B/	2.D\	8e#/L 8g#/L	2.r
.	.	8d/	.
8A/	.	8f#/J 8a/J	.
4G#/	.	8e#/L 8b/L	.
.	.	8d/	.
8B/	.	8e#/J 8g#/J	.
=14	=14	=14	=14
4A/	2.D\	8f#/L 8a/L	2.r
.	.	8d/	.
8F#/	.	8a/J 8ccn/J	.
4G/	.	8g/L 8b/L	.
.	.	8d/	.
8B-/	.	8g/J 8cc#/J	.
*v	*v	*	*
=15	=15	=15
4.D\ 4.A\	8f#\L 8dd\L	2.r
.	8a\	.
.	8ff#\J	.
4.A\ 4.c#\	8g\L 8ff#\L	.
.	8ee\	.
.	8cc#\J	.
=16	=16	=16
*^	*	*
4.e/	2.D\ 2.A\	4.g/ 4.cc#/	2.r
4.d/	.	4.f#/ 4.dd/	.
*v	*v	*	*
==	==	==
*-	*-	*-
